svg/u1f9e2.svg

<svg viewBox="0 0 128 128" xmlns="http://www.w3.org/2000/svg">
  <defs/>
  <path d="M32.33,67.91 C32.33,67.91 36.49,46.08 43.77,36.72 C48.37,30.8 68.73,18 88.48,23.2 L90.28,23.49 C92.49,28.09 97.62,39.87 97.44,46.23 C97.17,56.19 92,85.62 92,85.62 C92,85.62 79.94,81.12 72.98,78 C49.44,67.47 32.33,67.91 32.33,67.91 Z" fill="#2196F3"/>
  <path d="M97.1,42.89 C96.77,41.33 90.05,23.49 90.05,23.49 C90.05,23.49 103.24,26.91 113.04,37.24 C117.71,42.16 123.13,48.41 123.83,55.43 C124.87,65.82 120.72,87.63 120.71,87.66 C120.57,88.39 113.33,88.44 112.76,88.45 C109.5,88.52 98.21,88.09 91.72,85.44 C91.73,85.44 98.35,48.89 97.1,42.89 Z" fill="#1E88E5"/>
  <path d="M47.8,71.16 Q47.8,68.742 51.875,55.231 Q56.797,38.906 61.201,34.8 Q67.535,28.883 83.106,21.334 L83.427,21.179 L90.853,22.759 L91.075,23.216 Q97.834,37.138 98.347,44.78 Q99.046,55.163 93.171,85.985 L91.129,85.595 Q96.954,55.037 96.273,44.92 Q95.794,37.804 89.426,24.581 L83.693,23.361 Q68.661,30.677 62.619,36.32 Q58.626,40.044 53.865,55.831 Q49.88,69.048 49.88,71.16 Z" fill="#0F60B2"/>
  <path d="M82.03,21.18 C82.29,19.94 84.82,19.04 87.68,19.64 C90.54,20.24 92.65,22.12 92.39,23.36 C92.13,24.6 89.67,23.98 86.81,23.37 C83.95,22.76 81.77,22.42 82.03,21.18 Z" fill="#0F60B2"/>
  <path d="M5.26,93.26 C5.17,94.28 5.23,97.27 8.91,95.53 C12.59,93.79 20.22,88.03 20.22,88.03 C20.22,88.03 12.8,85.26 8.89,87.59 C4.98,89.92 5.35,92.24 5.26,93.26 Z" fill="#0D47A1"/>
  <path d="M7.56,86.27 L32.34,67.91 C32.34,67.91 37.5,66.93 49.34,68.88 C63.72,71.25 98.86,87.16 98.86,87.16 L81.44,101.66 C81.44,101.66 70.48,110.18 59.4,105.08 C42.84,97.45 24.93,87.52 19.74,86.35 C9.63,84.05 7.56,86.27 7.56,86.27 Z" fill="#76C8FF"/>
  <path d="M62.94,108.11 C55.11,106.17 28.51,91.27 19.84,88.61 C17.25,87.82 12.83,86.92 10.07,88.38 C7.67,89.65 5.62,92.15 6.27,95.02 C6.37,95.46 6.58,95.94 7.01,96.06 C6.04,96.44 4.9,95.82 4.4,94.91 C3.9,94 3.93,92.89 4.14,91.87 C4.57,89.79 5.8,87.5 7.56,86.27 C9.89,84.64 13.99,83.54 20.91,85.68 C33.05,89.43 57.23,103.75 63.48,105.04 C72.67,106.93 80.08,101.37 82.33,100.07 C84.58,98.76 84.41,99.8 82.85,100.95 C81.3,102.1 72.83,110.56 62.94,108.11 Z" fill="#2196F3"/>
</svg>

<svg viewBox="0 0 128 128" xmlns="http://www.w3.org/2000/svg">
  <g>
    <path d="M32.33,67.91c0,0,4.16-21.83,11.44-31.19C48.37,30.8,68.73,18,88.48,23.2l1.8,0.29 c2.21,4.6,7.34,16.38,7.16,22.74C97.17,56.19,92,85.62,92,85.62S79.94,81.12,72.98,78C49.44,67.47,32.33,67.91,32.33,67.91z" fill="#2196F3"/>
    <path d="M97.1,42.89c-0.33-1.56-7.05-19.4-7.05-19.4s13.19,3.42,22.99,13.75 c4.67,4.92,10.09,11.17,10.79,18.19c1.04,10.39-3.11,32.2-3.12,32.23c-0.14,0.73-7.38,0.78-7.95,0.79 c-3.26,0.07-14.55-0.36-21.04-3.01C91.73,85.44,98.35,48.89,97.1,42.89z" fill="#1E88E5"/>
    <path d="M48.84,71.16c0-0.44,6.39-29.37,13.07-35.6 c6.22-5.81,21.65-13.29,21.65-13.29l6.58,1.4c0,0,6.67,13.74,7.17,21.18C98,55.1,92.15,85.79,92.15,85.79" fill="none" stroke="#0F60B2" stroke-width="2.0795" stroke-miterlimit="10"/>
    <path d="M82.03,21.18c0.26-1.24,2.79-2.14,5.65-1.54s4.97,2.48,4.71,3.72c-0.26,1.24-2.72,0.62-5.58,0.01 S81.77,22.42,82.03,21.18z" fill="#0F60B2"/>
    <path d="M5.26,93.26c-0.09,1.02-0.03,4.01,3.65,2.27c3.68-1.74,11.31-7.5,11.31-7.5s-7.42-2.77-11.33-0.44 S5.35,92.24,5.26,93.26z" fill="#0D47A1"/>
    <path d="M7.56,86.27l24.78-18.36c0,0,5.16-0.98,17,0.97c14.38,2.37,49.52,18.28,49.52,18.28l-17.42,14.5 c0,0-10.96,8.52-22.04,3.42c-16.56-7.63-34.47-17.56-39.66-18.73C9.63,84.05,7.56,86.27,7.56,86.27z" fill="#76C8FF"/>
    <path d="M62.94,108.11c-7.83-1.94-34.43-16.84-43.1-19.5c-2.59-0.79-7.01-1.69-9.77-0.23 c-2.4,1.27-4.45,3.77-3.8,6.64c0.1,0.44,0.31,0.92,0.74,1.04c-0.97,0.38-2.11-0.24-2.61-1.15c-0.5-0.91-0.47-2.02-0.26-3.04 c0.43-2.08,1.66-4.37,3.42-5.6c2.33-1.63,6.43-2.73,13.35-0.59c12.14,3.75,36.32,18.07,42.57,19.36 c9.19,1.89,16.6-3.67,18.85-4.97c2.25-1.31,2.08-0.27,0.52,0.88C81.3,102.1,72.83,110.56,62.94,108.11z" fill="#2196F3"/>
  </g>
</svg>
